X:1
T:60 Lessons for 2 Guitars, Op.168 - Joseph Küffner (1776 - 1856)
T:Leçon No.46
T:60 Lessons for 2 Guitars, Op.168 "à l'usage des commençants"
T:Joseph Küffner (1776 - 1856)
%%score { ( 1 2 ) ( 3 4 ) } { ( 5 6 ) ( 7 8 ) }
L:1/8
Q:1/4=120
M:3/4
K:A
V:1 treble-8 nm="Classical Guitar"
V:2 treble-8 
V:3 tab stafflines=6 strings=E2,A2,D3,G3,B3,E4 nostems nm="Guitare classique [Tablature]"
V:4 tab stafflines=6 strings=E2,A2,D3,G3,B3,E4 nostems 
V:5 treble-8 nm="Guitare classique"
V:6 treble-8 
V:7 tab stafflines=6 strings=E2,A2,D3,G3,B3,E4 nostems nm="Guitare classique [Tablature]"
V:8 tab stafflines=6 strings=E2,A2,D3,G3,B3,E4 nostems 
V:1
"_""^Ländler"{/f} (ed) | ceacea | !>![ec']4 [db]2 | BdgBdg | !>![db]4 [ca]2 | ceacea | %6
 !>![ec']4 [db]2 | BdgBdg | A,2 [cea]2 ::"_" (cB) | ABfABf | GBeGBe | Af Ge F^d | %13
 !arpeggio![EGBe]3!<(! (fe)=d!<)! |"_" ceacea | !>![ec']4 [db]2 | BdgBdg | A,2 [cea]2 :| %18
V:2
 z2 | A,4 z2 | E,4 z2 | E,4 z2 | A,4 z2 | A,4 z2 | E,4 z2 | E,4 z2 | x4 :: z2 | B,4 z2 | E,4 z2 | %12
 x6 | x6 | A,4 z2 | E,4 z2 | E,4 z2 | x4 :| %18
V:3
{/!2!F} (!2!E !2!D) | !2!C !1!E !1!A !2!C !1!E !1!A | [!3!E!1!c]4 [!3!D!1!B]2 | %3
 !2!B, !2!D !1!G !2!B, !2!D !1!G | [!3!D!1!B]4 [!3!C!1!A]2 | !2!C !1!E !1!A !2!C !1!E !1!A | %6
 [!3!E!1!c]4 [!3!D!1!B]2 | !2!B, !2!D !1!G !2!B, !2!D !1!G | !5!A,,2 [!3!C!2!E!1!A]2 :: %9
 (!2!C !2!B,) | !3!A, !2!B, !1!F !3!A, !2!B, !1!F | !3!G, !2!B, !1!E !3!G, !2!B, !1!E | %12
 !3!A, !1!F !3!G, !1!E !4!F, !2!^D | [!4!E,!3!G,!2!B,!1!E]3 (!1!F !1!E) !2!=D | %14
 !2!C !1!E !1!A !2!C !1!E !1!A | [!3!E!1!c]4 [!3!D!1!B]2 | !2!B, !2!D !1!G !2!B, !2!D !1!G | %17
 !5!A,,2 [!3!C!2!E!1!A]2 :| %18
V:4
 x2 | !5!A,,4 x2 | !6!E,,4 x2 | !6!E,,4 x2 | !5!A,,4 x2 | !5!A,,4 x2 | !6!E,,4 x2 | !6!E,,4 x2 | %8
 x4 :: x2 | !5!B,,4 x2 | !6!E,,4 x2 | x6 | x6 | !5!A,,4 x2 | !6!E,,4 x2 | !6!E,,4 x2 | x4 :| %18
V:5
 z2 |"_" z2 [Ace]2 [Ace]2 | z2 [Gde]2 [Gde]2 | z2 [Gde]2 [Gde]2 | z2 [Ace]2 [Ace]2 | %5
 z2 [Ace]2 [Ace]2 | z2 [Gde]2 [Gde]2 | z2 [Gde]2 [Gde]2 | A,2 [Ace]2 :: z2 |"_" A2 B2 A2 | %11
 G2 B2 G2 | A,2 [B,G]2 [B,A]2 | [E,G]3 z z2 |"_" z2 [Ace]2 [Ace]2 | z2 [Gde]2 [Gde]2 | %16
 z2 [Gde]2 [Gde]2 | A,2 [Ace]2 :| %18
V:6
 x2 | A,6 | E,6 | E,6 | A,6 | A,6 | E,6 | E,6 | x4 :: x2 | ^D4 D2 | E4 E2 | x6 | x6 | A,6 | E,6 | %16
 E,6 | x4 :| %18
V:7
 x2 | x2 [!3!A,!2!C!1!E]2 [!3!A,!2!C!1!E]2 | x2 [!3!G,!2!D!1!E]2 [!3!G,!2!D!1!E]2 | %3
 x2 [!3!G,!2!D!1!E]2 [!3!G,!2!D!1!E]2 | x2 [!3!A,!2!C!1!E]2 [!3!A,!2!C!1!E]2 | %5
 x2 [!3!A,!2!C!1!E]2 [!3!A,!2!C!1!E]2 | x2 [!3!G,!2!D!1!E]2 [!3!G,!2!D!1!E]2 | %7
 x2 [!3!G,!2!D!1!E]2 [!3!G,!2!D!1!E]2 | !5!A,,2 [!3!A,!2!C!1!E]2 :: x2 | !3!A,2 !2!B,2 !3!A,2 | %11
 !3!G,2 !2!B,2 !3!G,2 | !5!A,,2 [!5!B,,!3!G,]2 [!5!B,,!3!A,]2 | [!6!E,,!3!G,]3 x x2 | %14
 x2 [!3!A,!2!C!1!E]2 [!3!A,!2!C!1!E]2 | x2 [!3!G,!2!D!1!E]2 [!3!G,!2!D!1!E]2 | %16
 x2 [!3!G,!2!D!1!E]2 [!3!G,!2!D!1!E]2 | !5!A,,2 [!3!A,!2!C!1!E]2 :| %18
V:8
 x2 | !5!A,,6 | !6!E,,6 | !6!E,,6 | !5!A,,6 | !5!A,,6 | !6!E,,6 | !6!E,,6 | x4 :: x2 | %10
 !4!^D,4 !4!D,2 | !4!E,4 !4!E,2 | x6 | x6 | !5!A,,6 | !6!E,,6 | !6!E,,6 | x4 :| %18

